X:1
T:The Rocky Road To Dublin
L:1/8
Q:1/4=180
M:9/8
K:C
"Am""^The Rocky Road To Dublin" efe d2 B A3 |"Am" E2 A A2 A"G" Bcd |"Am" efe d2 B A2 c |"G" B2 A G2 A"D" Bcd :|
|:"Am" e2 a a2 ^f"G" g3 |"Am" e2 a a2 A"G" Bcd |
|1 "D" e2 a a2 ^f g2 e |"Em" d2 B G2"G" A Bcd :|
|2 "D" e^fg fga g2 e |"Em" d2 B G2"G" A Bcd 
|:"Am" ecA ecA"G" A2 a |"Am" ecA ecA"D" Bcd |1"Am" ecA ecA a2 c |"G" d2 B G2 A Bcd :|
|2 "G" e^fg fga g2 e |"D" d2 B G2 A Bcd |"Am" efe"G" d2 B"Am" A3- | A6 z3 |]

